brandFactory_export/1.Light/Movil pausa_1Light.svg

<?xml version="1.0" encoding="UTF-8"?>
<svg width="24px" height="24px" viewBox="0 0 24 24" version="1.1" xmlns="http://www.w3.org/2000/svg" xmlns:xlink="http://www.w3.org/1999/xlink">
    <title>1.Light/Movil pausa_1Light</title>
    <g id="Symbols" stroke="none" stroke-width="1" fill="none" fill-rule="evenodd">
        <g id="1.Light/Movil-pausa_1Light" fill="#5CB615" fill-rule="nonzero">
            <path d="M22.6386555,19.3478992 L22.6386555,4.27563025 C22.6386555,3.14285714 22.3831933,2.32605042 21.8420168,1.79159664 C21.3109244,1.25042017 20.4941176,0.98487395 19.3512605,0.98487395 L11.8218487,0.98487395 C10.6991597,0.98487395 9.88235294,1.25042017 9.34117647,1.81176471 C8.8,2.35294118 8.53445378,3.16302521 8.53445378,4.27563025 L8.53445378,4.85714286 C12.2453782,5.28067227 14.3731092,7.58655462 14.3731092,11.9798319 C14.3731092,16.3630252 12.2453782,18.6689076 8.54453782,19.092437 L8.54453782,19.7915966 C8.60168067,20.6991597 8.86722689,21.3781513 9.34117647,21.8521008 C9.87226891,22.3831933 10.6890756,22.6420168 11.8218487,22.6420168 L19.3512605,22.6420168 C20.4941176,22.6420168 21.3008403,22.3865546 21.8420168,21.8521008 C22.3831933,21.307563 22.6386555,20.4907563 22.6386555,19.3478992 Z M7.18655462,18.1848739 C11.3579832,18.1848739 13.3882353,16.1546218 13.3882353,11.9798319 C13.3882353,7.80504202 11.3579832,5.76134454 7.18655462,5.76134454 C3.01176471,5.76134454 0.98487395,7.80168067 0.98487395,11.9798319 C0.98487395,16.1579832 3.01176471,18.1848739 7.18655462,18.1848739 Z M22.5411765,1.09243697 C23.2705882,1.83193277 23.6235294,2.86722689 23.6235294,4.27563025 L23.6235294,19.3478992 C23.6235294,20.7663866 23.2705882,21.8218487 22.5310924,22.5478992 C21.8016807,23.2773109 20.7596639,23.6235294 19.3512605,23.6235294 L11.8218487,23.6235294 C10.4134454,23.6235294 9.38151261,23.2773109 8.64201681,22.5478992 C7.99327731,21.8991597 7.63697479,21.0016807 7.5697479,19.8184874 L7.55966387,19.1596639 C7.43193277,19.1697479 7.31428571,19.1697479 7.18655462,19.1697479 C2.6487395,19.1697479 0,16.8739496 0,11.9798319 C0,7.07226891 2.6487395,4.77647059 7.18655462,4.77647059 C7.30420168,4.77647059 7.43193277,4.77647059 7.54957983,4.78655462 L7.54957983,4.27563025 C7.54957983,2.89747899 7.90252101,1.86218487 8.64201681,1.11260504 C9.38151261,0.36302521 10.4235294,0 11.8218487,0 L19.3512605,0 C20.7697479,0 21.8117647,0.352941176 22.5411765,1.09243697 Z M15.589916,17.8890756 C16.3865546,17.8890756 16.8605042,18.3630252 16.8605042,19.1697479 C16.8605042,19.5529412 16.7529412,19.8689076 16.5344538,20.097479 C16.3092437,20.3327731 15.9831933,20.4504202 15.589916,20.4504202 C15.1966387,20.4504202 14.8705882,20.3327731 14.6453782,20.097479 C14.4302521,19.8722689 14.3092437,19.5563025 14.3092437,19.1697479 C14.312605,18.3630252 14.7932773,17.8890756 15.589916,17.8890756 Z M5.01176471,8.69579832 C5.28403361,8.69579832 5.50252101,8.91764706 5.50252101,9.18655462 L5.50252101,14.9613445 C5.50252101,15.2336134 5.28067227,15.4521008 5.01176471,15.4521008 C4.74285714,15.4521008 4.5210084,15.2302521 4.5210084,14.9613445 L4.5210084,9.18991597 C4.5210084,8.91764706 4.74285714,8.69579832 5.01176471,8.69579832 Z M9.19663866,8.67563025 C9.46890756,8.67563025 9.68739496,8.89747899 9.68739496,9.1697479 L9.68739496,14.9411765 C9.68739496,15.2134454 9.46554622,15.4319328 9.19663866,15.4319328 C8.92436975,15.4319328 8.70588235,15.210084 8.70588235,14.9411765 L8.70588235,9.1697479 C8.70588235,8.89747899 8.92436975,8.6789916 9.19663866,8.67563025 L9.19663866,8.67563025 Z" id="Movil-pausa_1Light"></path>
        </g>
    </g>
</svg>

<svg width="24" height="24" viewBox="0 0 24 24" xmlns="http://www.w3.org/2000/svg"><path d="M22.639 19.348V4.276c0-1.133-.256-1.95-.797-2.484-.531-.542-1.348-.807-2.49-.807h-7.53c-1.123 0-1.94.265-2.48.827-.542.54-.808 1.351-.808 2.464v.581c3.711.424 5.84 2.73 5.84 7.123 0 4.383-2.129 6.689-5.83 7.112v.7c.058.907.323 1.586.797 2.06.531.531 1.348.79 2.48.79h7.53c1.143 0 1.95-.255 2.491-.79.541-.544.797-1.361.797-2.504zM7.187 18.185c4.171 0 6.201-2.03 6.201-6.205 0-4.175-2.03-6.219-6.201-6.219-4.175 0-6.202 2.04-6.202 6.219 0 4.178 2.027 6.205 6.202 6.205zM22.54 1.092c.73.74 1.083 1.775 1.083 3.184v15.072c0 1.418-.353 2.474-1.093 3.2-.73.73-1.771 1.076-3.18 1.076h-7.53c-1.408 0-2.44-.347-3.179-1.076-.649-.649-1.005-1.546-1.072-2.73l-.01-.658c-.128.01-.246.01-.373.01C2.649 19.17 0 16.874 0 11.98c0-4.908 2.649-7.204 7.187-7.204.117 0 .245 0 .363.01v-.51c0-1.379.353-2.414 1.092-3.163C9.382.363 10.424 0 11.822 0h7.53c1.418 0 2.46.353 3.19 1.092zM15.59 17.89c.797 0 1.27.474 1.27 1.28 0 .384-.107.7-.326.928-.225.236-.55.353-.944.353-.393 0-.72-.117-.945-.353-.215-.225-.336-.54-.336-.927.004-.807.484-1.28 1.28-1.28zM5.012 8.696c.272 0 .49.222.49.49v5.775a.491.491 0 01-.981 0V9.19c0-.272.222-.494.49-.494zm4.185-.02c.272 0 .49.221.49.494v5.771a.491.491 0 01-.981 0V9.17c0-.273.218-.491.49-.494z" fill="#5CB615" fill-rule="nonzero"/></svg>
